logos/bugsnag.svg

<?xml version="1.0" encoding="UTF-8"?>
<svg width="512px" height="141px" viewBox="0 0 512 141" version="1.1" xmlns="http://www.w3.org/2000/svg" xmlns:xlink="http://www.w3.org/1999/xlink" preserveAspectRatio="xMidYMid">
    <g>
        <path d="M322.656483,30.0297384 C306.335973,30.5161536 293.535573,44.3373855 293.535573,60.6770962 L293.535573,97.983862 C293.535573,98.8675452 294.25194,99.583912 295.135623,99.583912 L304.179106,99.583912 C305.062789,99.583912 305.779156,98.8675452 305.779156,97.983862 L305.779156,60.542692 C305.779156,50.9423919 313.120185,42.7309353 322.675684,42.2573205 C332.496778,41.7735106 340.850778,49.3423973 341.335467,59.1634489 C341.335467,59.4610582 341.357867,59.7554674 341.357867,60.0498766 L341.357867,98.0030626 C341.357867,98.8867458 342.074234,99.6031126 342.957917,99.6031126 L351.9982,99.6031126 C352.881883,99.6031126 353.59825,98.8867458 353.59825,98.0030626 L353.59825,60.0594769 C353.575289,43.4487284 340.092862,30.0006841 323.482109,30.0201381 C323.2101,30.016938 322.928492,30.0201381 322.656483,30.0297384 Z M398.982068,30.368949 C383.42085,29.6677276 369.295484,39.4112412 364.423796,54.2068445 C359.552108,69.0024478 365.125408,85.2320608 378.059098,93.9132416 C390.992787,102.594422 408.124094,101.604296 419.971524,91.4908591 L419.971524,97.9614613 C419.971524,98.8451445 420.687891,99.5615113 421.571574,99.5615113 L430.621457,99.5615113 C431.50514,99.5615113 432.221507,98.8451445 432.221507,97.9614613 L432.221507,65.7844558 C432.202306,47.0638707 417.680253,31.168974 398.982068,30.368949 Z M397.471621,87.5803389 C388.367087,87.5842196 380.156764,82.1031101 376.669321,73.6929791 C373.181878,65.2828481 375.104153,55.6000379 381.539743,49.1598714 C387.975333,42.7197049 397.656774,40.7905477 406.069382,44.2720112 C414.48199,47.7534747 419.968935,55.9598984 419.971524,65.0644333 L419.971524,65.0644333 C419.962713,77.4897266 409.896905,87.5626929 397.471621,87.5803389 Z M478.754161,30.3721491 C463.192943,29.6709277 449.067577,39.4144413 444.195889,54.2100446 C439.324201,69.0056479 444.897501,85.2352609 457.831191,93.9164417 C470.76488,102.597622 487.896187,101.607497 499.743617,91.4940592 L499.743617,105.228888 C499.743617,117.846883 489.420094,128.567218 476.8021,128.336811 C469.657867,128.225492 462.997494,124.705009 458.88154,118.864515 C458.393324,118.196094 457.472163,118.017445 456.769474,118.454902 L449.089234,123.216651 C448.726708,123.441622 448.469047,123.802065 448.373504,124.217888 C448.277961,124.633711 448.352449,125.070471 448.580418,125.43112 C448.592398,125.453623 448.606318,125.475038 448.622019,125.495122 C454.937551,134.767148 465.36734,140.389064 476.584493,140.567593 C496.057102,140.938804 512,124.611894 512,105.132885 L512,65.8196569 C511.9904,47.0638707 497.468346,31.168974 478.770162,30.368949 L478.754161,30.3721491 Z M477.253314,87.5803371 C468.148779,87.5816312 459.940015,82.0981875 456.454963,73.6870651 C452.969911,65.2759427 454.894939,55.5936791 461.33236,49.1553427 C467.769781,42.7170063 477.451771,40.7906021 485.863389,44.274458 C494.275007,47.7583138 499.759617,55.966298 499.759617,65.0708335 L499.759617,65.0708335 C499.745513,77.4953928 489.677871,87.5644657 477.253314,87.5803371 Z M187.177049,30.368949 C171.616697,29.6718644 157.494606,39.4177475 152.625929,54.2132353 C147.757252,69.0087231 153.332393,85.2362763 166.266075,93.9155817 C179.199758,102.594887 196.329658,101.603829 208.176106,91.4908591 L208.176106,105.225688 C208.176106,117.843683 197.852583,128.570418 185.231389,128.33361 C178.087555,128.220737 171.427843,124.700603 167.310829,118.861314 C166.823512,118.191479 165.901146,118.012595 165.198763,118.451702 L157.518522,123.21345 C157.155466,123.437901 156.897138,123.798109 156.800985,124.213973 C156.704831,124.629837 156.778823,125.066881 157.006506,125.42792 C157.022507,125.45032 157.035307,125.472721 157.051308,125.491922 C163.352818,134.757141 173.762447,140.383806 184.96578,140.580393 C204.441589,140.951605 220.384513,124.624695 220.384513,105.145686 L220.384513,65.8196569 C220.406888,47.0638707 205.884834,31.168974 187.177049,30.368949 Z M185.666602,87.5803369 C173.234947,87.5803369 163.157099,77.5024889 163.157099,65.0708335 C163.157099,52.639178 173.234947,42.56133 185.666602,42.56133 C198.098258,42.56133 208.176106,52.639178 208.176106,65.0708335 L208.176106,65.0708335 C208.160238,77.4959105 198.091679,87.5644694 185.666602,87.5803369 L185.666602,87.5803369 Z M137.985112,30.8201631 L128.935229,30.9609675 C128.071456,30.9764352 127.375936,31.6747881 127.36398,32.5386168 L127.36398,68.6325448 C127.353381,78.4654397 119.375521,86.4289741 109.542623,86.4219007 C109.254614,86.4219007 108.969805,86.4219007 108.681796,86.3995 C99.1262977,85.9322854 91.7884684,77.6824276 91.7884684,68.1141286 L91.7884684,32.5930185 C91.7884684,31.7093353 91.0721017,30.9929685 90.1884184,30.9929685 L81.1449358,30.9929685 C80.2612526,30.9929685 79.5448858,31.7093353 79.5448858,32.5930185 L79.5448858,68.0117254 C79.5448858,84.3322354 92.3452858,98.175868 108.665796,98.6622832 C125.27181,99.1319817 139.114631,86.051361 139.585162,69.4453702 C139.585162,69.1797619 139.585162,68.9173537 139.585162,68.6517454 L139.585162,32.4106128 C139.585162,31.5269296 138.868795,30.8105628 137.985112,30.8105628 L137.985112,30.8201631 Z M259.300903,59.2402513 C250.436626,56.7761742 245.054058,54.9393168 245.054058,50.1391668 C245.054058,43.1949498 252.651095,40.6764711 257.758455,40.6764711 C263.582637,40.6764711 267.109147,42.017313 271.69169,44.8366011 C272.429715,45.2789015 273.385382,45.0583628 273.854958,44.3373855 L278.053489,37.825182 C278.527793,37.0841336 278.314789,36.0991696 277.576674,35.6203131 L277.528673,35.5915122 C271.436666,31.9089215 264.451402,29.967525 257.332842,29.9784902 C245.812482,29.9784902 233.952911,37.5627738 233.952911,50.2511703 C233.952911,63.2051752 245.473271,66.3156724 255.604788,69.0613582 C265.205088,71.6534392 271.016469,73.663102 271.016469,79.711291 C271.016469,85.2666646 265.307491,89.4587956 257.742454,89.4587956 C250.459027,89.4587956 244.500441,86.1690928 240.461914,83.0585956 C239.782746,82.5275038 238.803283,82.6385476 238.260246,83.3082034 L233.27449,89.3883934 C232.723924,90.0719014 232.826724,91.0713399 233.504897,91.6284634 C240.058702,97.1262352 248.788575,100.134329 258.286471,100.134329 C272.078902,100.134329 282.082476,91.3724554 282.082476,79.295278 C282.114416,65.5796494 269.44842,62.0595394 259.291303,59.2370512 L259.300903,59.2402513 Z M38.814013,30.5705553 C29.2211172,29.4375706 19.5913154,32.3659586 12.253183,38.6476077 L12.253183,1.60005 C12.253183,0.716366787 11.5368162,0 10.653133,0 C10.3641078,0 10.080722,0.0800136706 9.83390737,0.2304072 L0.761623864,5.7473796 C0.288187629,6.03865029 0,6.5547621 0,7.11062221 L0,64.3636114 C0,83.1001969 14.5220539,98.9822932 33.2202382,99.7823182 C51.8628547,100.549298 67.7832251,86.4556758 69.2828302,67.8576492 C70.7824352,49.2596225 57.3258695,32.7972648 38.8012126,30.5673552 L38.814013,30.5705553 Z M34.7370856,87.5803371 C22.3054301,87.5803371 12.2275822,77.5024889 12.2275822,65.0708335 C12.2275822,52.639178 22.3054301,42.56133 34.7370856,42.56133 C47.1687411,42.56133 57.2465892,52.639178 57.2465892,65.0708335 C57.2474379,71.0409852 54.8761804,76.7668587 50.6546456,80.9883935 C46.4331108,85.2099283 40.7072373,87.5811858 34.7370856,87.5803371 Z" fill="#000D47"></path>
    </g>
</svg>

<svg preserveAspectRatio="xMidYMid" viewBox="0 0 512 141" xmlns="http://www.w3.org/2000/svg">
  <path fill="#000D47" d="M322.656 30.03c-16.32.486-29.12 14.307-29.12 30.647v37.307a1.6 1.6 0 0 0 1.6 1.6h9.043a1.6 1.6 0 0 0 1.6-1.6V60.543c0-9.6 7.341-17.812 16.897-18.286 9.82-.483 18.175 7.085 18.66 16.906 0 .298.022.592.022.887v37.953a1.6 1.6 0 0 0 1.6 1.6h9.04a1.6 1.6 0 0 0 1.6-1.6V60.06c-.023-16.61-13.505-30.058-30.116-30.039a17.5 17.5 0 0 0-.826.01Zm76.326.339c-15.561-.701-29.687 9.042-34.558 23.838-4.872 14.795.701 31.025 13.635 39.706 12.934 8.681 30.065 7.691 41.913-2.422v6.47a1.6 1.6 0 0 0 1.6 1.6h9.05a1.6 1.6 0 0 0 1.6-1.6V65.784c-.02-18.72-14.542-34.615-33.24-35.415Zm-1.51 57.211a22.51 22.51 0 1 1 22.5-22.516c-.01 12.426-10.075 22.499-22.5 22.516Zm81.282-57.208c-15.561-.701-29.686 9.042-34.558 23.838-4.872 14.796.702 31.025 13.635 39.706 12.934 8.682 30.065 7.691 41.913-2.422v13.735c0 12.618-10.324 23.338-22.942 23.108a22.35 22.35 0 0 1-17.92-9.472 1.58 1.58 0 0 0-2.113-.41l-7.68 4.762a1.6 1.6 0 0 0-.467 2.278 34.497 34.497 0 0 0 27.962 15.073c19.473.37 35.416-15.956 35.416-35.435V65.82c-.01-18.756-14.532-34.651-33.23-35.451l-.016.003Zm-1.5 57.208a22.51 22.51 0 1 1 22.506-22.51c-.014 12.425-10.082 22.494-22.507 22.51ZM187.176 30.37c-15.56-.697-29.682 9.049-34.551 23.844-4.869 14.796.706 31.023 13.64 39.703 12.934 8.679 30.064 7.688 41.91-2.425v13.735c0 12.618-10.323 23.344-22.945 23.108a22.36 22.36 0 0 1-17.92-9.473 1.578 1.578 0 0 0-2.112-.41l-7.68 4.762a1.6 1.6 0 0 0-.512 2.215c.016.022.028.045.044.064a34.49 34.49 0 0 0 27.915 15.088c19.476.372 35.419-15.955 35.419-35.434V65.82c.022-18.756-14.5-34.651-33.208-35.451Zm-1.51 57.211c-12.432 0-22.51-10.078-22.51-22.51 0-12.43 10.078-22.509 22.51-22.509 12.431 0 22.51 10.078 22.51 22.51-.017 12.425-10.085 22.493-22.51 22.51Zm-47.682-56.76-9.05.141a1.6 1.6 0 0 0-1.571 1.578v36.094c-.01 9.832-7.988 17.796-17.821 17.789-.288 0-.573 0-.861-.022-9.556-.468-16.894-8.718-16.894-18.286V32.593a1.6 1.6 0 0 0-1.6-1.6h-9.043a1.6 1.6 0 0 0-1.6 1.6v35.419c0 16.32 12.8 30.164 29.12 30.65 16.607.47 30.45-12.61 30.92-29.217V32.411a1.6 1.6 0 0 0-1.6-1.6v.01ZM259.3 59.241c-8.864-2.464-14.247-4.3-14.247-9.1 0-6.945 7.597-9.464 12.704-9.464 5.825 0 9.351 1.341 13.934 4.16a1.6 1.6 0 0 0 2.163-.499l4.198-6.512a1.6 1.6 0 0 0-.476-2.205l-.048-.028a38.923 38.923 0 0 0-20.196-5.614c-11.52 0-23.38 7.585-23.38 20.273 0 12.954 11.52 16.065 21.652 18.81 9.6 2.592 15.411 4.602 15.411 10.65 0 5.556-5.709 9.748-13.274 9.748-7.283 0-13.242-3.29-17.28-6.4a1.58 1.58 0 0 0-2.202.25l-4.986 6.08a1.6 1.6 0 0 0 .23 2.24c6.555 5.497 15.285 8.505 24.782 8.505 13.793 0 23.796-8.762 23.796-20.839.032-13.715-12.634-17.235-22.79-20.058l.009.003ZM38.814 30.57a34.603 34.603 0 0 0-26.56 8.078V1.6a1.6 1.6 0 0 0-1.6-1.6c-.29 0-.573.08-.82.23L.762 5.747A1.6 1.6 0 0 0 0 7.111v57.253C0 83.1 14.522 98.982 33.22 99.782c18.643.767 34.563-13.326 36.063-31.924S57.326 32.798 38.8 30.568l.013.003Zm-4.077 57.01c-12.432 0-22.51-10.078-22.51-22.51 0-12.43 10.078-22.509 22.51-22.509 12.432 0 22.51 10.078 22.51 22.51a22.506 22.506 0 0 1-22.51 22.51Z"/>
</svg>
